X:1
T:Peter Emberly
M:4/4
L:1/4
K:C
 D| G3/2 c/2 B D| G3/2 E/2 E B,| C/2 D3/2 G3/2 ^F/2| G3 c/2c/2| B A/2^F/2 G d|\
 d3/2- B/2 c c| B/4 G/4- G3/2 F E| D3 c| B ^F G d3/4 d/4| d3/2 B/2 c d3/4 c/4|\
 B/4 G/4- G/2G/2 E/2 F E| D3 G| G3/2 c/2 BD/2-E/2| F ED/2-C/2 B,| C/2 D3/2 G3/2 ^F/2|\
 G2 z||
